Avidclan_Website/assets/images/icons/rendering-ic.svg

<svg width="428" height="426" viewBox="0 0 428 426" fill="none" xmlns="http://www.w3.org/2000/svg">
<g clip-path="url(#clip0_493_470)">
<path d="M124.8 149.4L225.2 207.4V323.3C225.2 327.5 227.4 331.4 231.1 333.6C234.8 335.7 239.3 335.7 242.9 333.6L349.2 272.2C352.9 270.1 355.1 266.2 355.1 261.9V139.2C355.1 135 352.8 131.1 349.2 128.9L243 67.6C239.3 65.5 234.8 65.5 231.2 67.6L124.9 129C121.2 131.1 119 135 119 139.3C118.9 143.4 121.2 147.3 124.8 149.4ZM331.6 255.2L248.9 302.9V207.5L331.6 159.8V255.2ZM237.1 91.5L319.8 139.2L281.7 161.2L237.1 186.9L154.4 139.2L237.1 91.5Z" fill="#0E53BE"/>
<path d="M76.1999 158.6C72.4999 160.7 70.2999 164.6 70.2999 168.9V291.7C70.2999 295.9 72.5999 299.8 76.1999 302L182.6 363.4C186.3 365.5 190.8 365.5 194.4 363.4C198.1 361.3 200.3 357.4 200.3 353.1V288.6C200.3 288.4 200.3 288.3 200.3 288.1C200.3 287.3 200.1 286.5 200 285.7C199.9 285.3 199.8 285 199.7 284.6C199.6 284.2 199.4 283.8 199.3 283.5C199.1 283.2 199 282.9 198.8 282.6C198.6 282.3 198.4 281.9 198.1 281.6C197.9 281.3 197.7 281.1 197.4 280.8C197.1 280.5 196.8 280.2 196.5 279.9C196.3 279.7 196 279.5 195.7 279.3C195.3 279 194.9 278.7 194.5 278.5C194.4 278.4 194.3 278.3 194.2 278.3L142.2 249.7V196.9C142.2 196.7 142.2 196.6 142.2 196.4C142.2 196.1 142.1 195.7 142.1 195.4C142 195 142 194.5 141.9 194.1C141.8 193.8 141.7 193.5 141.6 193.2C141.5 192.8 141.3 192.3 141.1 191.9C141 191.6 140.8 191.3 140.6 191C140.4 190.6 140.2 190.3 139.9 189.9C139.7 189.6 139.5 189.3 139.2 189.1C138.9 188.8 138.7 188.5 138.4 188.2C138.1 188 137.8 187.7 137.6 187.5C137.3 187.2 136.9 187 136.6 186.8C136.5 186.7 136.4 186.6 136.3 186.6L88.0999 158.8C84.3999 156.5 79.8999 156.5 76.1999 158.6ZM93.9999 250L118.5 263.5V299L93.9999 284.8V250ZM176.7 295.5V332.5L142.2 312.6V276.5L176.7 295.5ZM118.5 203.5V236.4L93.9999 222.9V189.3L118.5 203.5Z" fill="#0E53BE"/>
<path d="M212.8 -1.42725e-05C206.3 -1.42725e-05 201 5.29999 201 11.8C201 18.3 206.3 23.6 212.8 23.6C246.2 23.3 279.1 31.8 308.2 48.3C337.3 64.8 361.4 88.7 378.2 117.6C395 146.5 403.9 179.3 403.9 212.7C403.9 246.1 395 279 378.2 307.8C361.4 336.7 337.2 360.6 308.2 377.1C279.1 393.6 246.2 402.1 212.8 401.8C211.2 401.8 209.6 402.1 208.2 402.7C206.8 402 205.2 401.6 203.6 401.6C188.7 400.9 174 398.4 159.8 394.3C153.5 392.5 146.9 396.1 145.1 402.4C143.3 408.7 146.9 415.3 153.2 417.1C169.3 421.8 185.8 424.5 202.5 425.3H203.1C204.7 425.3 206.3 425 207.7 424.4C209.3 425.2 211 425.6 212.8 425.6C250.4 426 287.4 416.3 320.1 397.8C352.8 379.2 379.9 352.3 398.8 319.8C417.7 287.3 427.7 250.4 427.7 212.8C427.7 175.2 417.7 138.3 398.8 105.8C379.9 73.3 352.7 46.4 320.1 27.8C287.4 9.29999 250.4 -0.300014 212.8 -1.42725e-05Z" fill="#0E53BE"/>
<path d="M111.2 372.6C98.6999 364.6 87.0999 355.2 76.7999 344.5C72.1999 339.8 64.7999 339.7 60.0999 344.3C55.3999 348.8 55.2999 356.3 59.7999 361C71.3999 373 84.3999 383.6 98.4999 392.6C104 396.1 111.3 394.5 114.8 389C118.4 383.4 116.8 376.1 111.2 372.6Z" fill="#0E53BE"/>
<path d="M11.7999 218.3C18.1999 218.3 23.3999 213.2 23.5999 206.8C24.0999 191.9 26.2999 177.2 30.1999 162.8C31.0999 159.8 30.6999 156.5 29.0999 153.8C27.4999 151.1 24.9999 149 21.8999 148.2C18.7999 147.4 15.5999 147.8 12.8999 149.4C10.1999 151 8.19995 153.6 7.39995 156.6C2.99995 172.8 0.499949 189.4 -5.11403e-05 206.1C-0.200051 212.6 4.89995 218.1 11.4999 218.3H11.7999Z" fill="#0E53BE"/>
<path d="M78.9999 62.4C74.3999 57.8 66.8999 57.8 62.2999 62.4C50.4999 74.2 40.0999 87.3999 31.2999 101.6C29.6999 104.3 29.0999 107.5 29.8999 110.5C30.5999 113.6 32.4999 116.2 35.1999 117.8C40.7999 121.2 48.0999 119.5 51.4999 113.9C59.2999 101.2 68.4999 89.5 79.0999 79C83.5999 74.5 83.5999 67 78.9999 62.4Z" fill="#0E53BE"/>
<path d="M29.5 259.8C27.9 253.5 21.4 249.6 15.1 251.3C8.79997 252.9 4.89997 259.4 6.59997 265.7C10.7 281.9 16.8 297.6 24.6 312.4C26.1 315.2 28.6 317.3 31.6 318.2C34.6 319.1 37.9 318.8 40.7 317.4C43.5 316 45.6 313.4 46.5 310.4C47.4 307.4 47.1 304.1 45.6 301.3C38.5 288.2 33.1 274.2 29.5 259.8Z" fill="#0E53BE"/>
</g>
<defs>
<clipPath id="clip0_493_470">
<rect width="427.7" height="425.8" fill="white"/>
</clipPath>
</defs>
</svg>

<?xml version="1.0" encoding="utf-8"?>
<!-- Generator: Adobe Illustrator 24.1.1, SVG Export Plug-In . SVG Version: 6.00 Build 0)  -->
<svg version="1.1" id="Layer_1" xmlns="http://www.w3.org/2000/svg" xmlns:xlink="http://www.w3.org/1999/xlink" x="0px" y="0px"
	 viewBox="0 0 427.7 425.8" style="enable-background:new 0 0 427.7 425.8;" xml:space="preserve">
<style type="text/css">
	.st0{fill:#007AFB;}
</style>
<g>
	<path class="st0" d="M124.8,149.4l100.4,58v115.9c0,4.2,2.2,8.1,5.9,10.3c3.7,2.1,8.2,2.1,11.8,0l106.3-61.4
		c3.7-2.1,5.9-6,5.9-10.3V139.2c0-4.2-2.3-8.1-5.9-10.3L243,67.6c-3.7-2.1-8.2-2.1-11.8,0l-106.3,61.4c-3.7,2.1-5.9,6-5.9,10.3
		C118.9,143.4,121.2,147.3,124.8,149.4L124.8,149.4z M331.6,255.2l-82.7,47.7v-95.4l82.7-47.7V255.2z M237.1,91.5l82.7,47.7
		l-38.1,22l-44.6,25.7l-82.7-47.7L237.1,91.5z"/>
	<path class="st0" d="M76.2,158.6c-3.7,2.1-5.9,6-5.9,10.3v122.8c0,4.2,2.3,8.1,5.9,10.3l106.4,61.4c3.7,2.1,8.2,2.1,11.8,0
		c3.7-2.1,5.9-6,5.9-10.3v-64.5c0-0.2,0-0.3,0-0.5c0-0.8-0.2-1.6-0.3-2.4c-0.1-0.4-0.2-0.7-0.3-1.1v0c-0.1-0.4-0.3-0.8-0.4-1.1
		c-0.2-0.3-0.3-0.6-0.5-0.9c-0.2-0.3-0.4-0.7-0.7-1c-0.2-0.3-0.4-0.5-0.7-0.8l0,0c-0.3-0.3-0.6-0.6-0.9-0.9
		c-0.2-0.2-0.5-0.4-0.8-0.6c-0.4-0.3-0.8-0.6-1.2-0.8c-0.1-0.1-0.2-0.2-0.3-0.2l-52-28.6v-52.8c0-0.2,0-0.3,0-0.5
		c0-0.3-0.1-0.7-0.1-1c-0.1-0.4-0.1-0.9-0.2-1.3c-0.1-0.3-0.2-0.6-0.3-0.9v0c-0.1-0.4-0.3-0.9-0.5-1.3c-0.1-0.3-0.3-0.6-0.5-0.9
		c-0.2-0.4-0.4-0.7-0.7-1.1c-0.2-0.3-0.4-0.6-0.7-0.8c-0.3-0.3-0.5-0.6-0.8-0.9c-0.3-0.2-0.6-0.5-0.8-0.7v0c-0.3-0.3-0.7-0.5-1-0.7
		c-0.1-0.1-0.2-0.2-0.3-0.2l-48.2-27.8C84.4,156.5,79.9,156.5,76.2,158.6L76.2,158.6z M94,250l24.5,13.5v35.5L94,284.8V250z
		 M176.7,295.5v37l-34.5-19.9v-36.1L176.7,295.5z M118.5,203.5v32.9L94,222.9v-33.6L118.5,203.5z"/>
	<path class="st0" d="M212.8,0c-6.5,0-11.8,5.3-11.8,11.8c0,6.5,5.3,11.8,11.8,11.8c33.4-0.3,66.3,8.2,95.4,24.7
		c29.1,16.5,53.2,40.4,70,69.3c16.8,28.9,25.7,61.7,25.7,95.1c0,33.4-8.9,66.3-25.7,95.1c-16.8,28.9-41,52.8-70,69.3
		c-29.1,16.5-62,25-95.4,24.7c-1.6,0-3.2,0.3-4.6,0.9c-1.4-0.7-3-1.1-4.6-1.1c-14.9-0.7-29.6-3.2-43.8-7.3
		c-6.3-1.8-12.9,1.8-14.7,8.1c-1.8,6.3,1.8,12.9,8.1,14.7c16.1,4.7,32.6,7.4,49.3,8.2h0.6c1.6,0,3.2-0.3,4.6-0.9
		c1.6,0.8,3.3,1.2,5.1,1.2c37.6,0.4,74.6-9.3,107.3-27.8c32.7-18.6,59.8-45.5,78.7-78c18.9-32.5,28.9-69.4,28.9-107
		s-10-74.5-28.9-107c-18.9-32.5-46.1-59.4-78.7-78C287.4,9.3,250.4-0.3,212.8,0L212.8,0z"/>
	<path class="st0" d="M111.2,372.6c-12.5-8-24.1-17.4-34.4-28.1c-4.6-4.7-12-4.8-16.7-0.2c-4.7,4.5-4.8,12-0.3,16.7
		c11.6,12,24.6,22.6,38.7,31.6c5.5,3.5,12.8,1.9,16.3-3.6C118.4,383.4,116.8,376.1,111.2,372.6L111.2,372.6z"/>
	<path class="st0" d="M11.8,218.3c6.4,0,11.6-5.1,11.8-11.5c0.5-14.9,2.7-29.6,6.6-44c0.9-3,0.5-6.3-1.1-9c-1.6-2.7-4.1-4.8-7.2-5.6
		s-6.3-0.4-9,1.2c-2.7,1.6-4.7,4.2-5.5,7.2C3,172.8,0.5,189.4,0,206.1c-0.2,6.5,4.9,12,11.5,12.2L11.8,218.3z"/>
	<path class="st0" d="M79,62.4c-4.6-4.6-12.1-4.6-16.7,0c-11.8,11.8-22.2,25-31,39.2c-1.6,2.7-2.2,5.9-1.4,8.9
		c0.7,3.1,2.6,5.7,5.3,7.3c5.6,3.4,12.9,1.7,16.3-3.9c7.8-12.7,17-24.4,27.6-34.9C83.6,74.5,83.6,67,79,62.4L79,62.4z"/>
	<path class="st0" d="M29.5,259.8c-1.6-6.3-8.1-10.2-14.4-8.5c-6.3,1.6-10.2,8.1-8.5,14.4c4.1,16.2,10.2,31.9,18,46.7
		c1.5,2.8,4,4.9,7,5.8c3,0.9,6.3,0.6,9.1-0.8s4.9-4,5.8-7c0.9-3,0.6-6.3-0.9-9.1C38.5,288.2,33.1,274.2,29.5,259.8L29.5,259.8z"/>
</g>
</svg>
